packages/elvis-assets-icons/icons/svg/src/pause_circle-color.svg

<svg width="24" height="24" viewBox="0 0 24 24" fill="none" xmlns="http://www.w3.org/2000/svg">
<path d="M9.58406 7.31714H8.74326C8.2789 7.31714 7.90247 7.69358 7.90247 8.15794V15.7251C7.90247 16.1895 8.2789 16.5659 8.74326 16.5659H9.58406C10.0484 16.5659 10.4249 16.1895 10.4249 15.7251V8.15794C10.4249 7.69358 10.0484 7.31714 9.58406 7.31714Z" fill="black"/>
<path d="M14.8523 7.31714H14.0115C13.5471 7.31714 13.1707 7.69358 13.1707 8.15794V15.7251C13.1707 16.1895 13.5471 16.5659 14.0115 16.5659H14.8523C15.3166 16.5659 15.693 16.1895 15.693 15.7251V8.15794C15.693 7.69358 15.3166 7.31714 14.8523 7.31714Z" fill="black"/>
<path fill-rule="evenodd" clip-rule="evenodd" d="M12 1.7561C6.34245 1.7561 1.7561 6.34245 1.7561 12C1.7561 17.6576 6.34245 22.2439 12 22.2439C17.6576 22.2439 22.2439 17.6576 22.2439 12C22.2439 6.34245 17.6576 1.7561 12 1.7561ZM0 12C0 5.37258 5.37258 0 12 0C18.6274 0 24 5.37258 24 12C24 18.6274 18.6274 24 12 24C5.37258 24 0 18.6274 0 12Z" fill="#29D305"/>
</svg>

<svg width="24" height="24" fill="none" xmlns="http://www.w3.org/2000/svg"><path d="M9.584 7.317h-.84a.84.84 0 00-.842.84v7.568c0 .464.377.84.841.84h.841a.84.84 0 00.84-.84V8.158a.84.84 0 00-.84-.84zM14.852 7.317h-.84a.84.84 0 00-.841.84v7.568c0 .464.376.84.84.84h.841a.84.84 0 00.841-.84V8.158a.84.84 0 00-.84-.84z" fill="#000"/><path fill-rule="evenodd" clip-rule="evenodd" d="M12 1.756C6.342 1.756 1.756 6.342 1.756 12c0 5.658 4.586 10.244 10.244 10.244 5.658 0 10.244-4.586 10.244-10.244 0-5.658-4.586-10.244-10.244-10.244zM0 12C0 5.373 5.373 0 12 0s12 5.373 12 12-5.373 12-12 12S0 18.627 0 12z" fill="#29D305"/></svg>
